src/assets/desktop/img/wallet-app/background_wallet.svg

<svg viewBox="0 0 802 426" xmlns="http://www.w3.org/2000/svg" fill-rule="evenodd" clip-rule="evenodd" stroke-linecap="round" stroke-linejoin="round" stroke-miterlimit="1.5"><path fill="#383f51" stroke="#383f51" d="M331.192 511.039h800v424.004h-800z" transform="matrix(1.00062 0 0 1.00118 -330.908 -511.642)"/><path d="M1989.09 998.974s-26.64-54.891-27.27-83.283M1930.27 915.691s-7.91 88.959 58.82 168.459M1903.78 915.691s-28.74 147.639 85.31 242.909M1877.91 915.691s-68.49 194.329 111.18 306.629M1852.67 915.691s-116.92 243.879 136.42 358.369M1829.81 915.691s-176.59 246.539 159.28 401.569M1807.2 915.691s-208.97 279.139 119.89 423.999M1783.42 915.691s-226.23 194.399 42.31 423.999M1760.03 915.691s-253.31 183.959-7.24 423.999M1732.28 915.691s-266.57 161.189-47.32 423.999M1702.65 915.691s-286.03 156.829-75.06 423.999M1665.36 915.691s-298.03 127.249-97.91 423.999M1617.73 915.691s-311.53 136.129-99.57 423.999M1561.53 915.691s-295.74 122.319-93.65 423.999M1490.56 915.691s-281.95 151.899-67.04 423.999M1416.65 915.691s-254.38 183.449-29.61 423.999M1342.74 915.691s-241.59 215.979 21.63 423.999M1277.62 915.691s-213 250.479 77.85 423.999M1189.09 1205.64s30.3 76.86 166.38 134.05" fill="none" stroke="#333" transform="matrix(1.00062 0 0 1.00118 -1189.346 -916.77)"/><path d="M1989.09 998.974s-26.64-54.891-27.27-83.283M1930.27 915.691s-7.91 88.959 58.82 168.459M1903.78 915.691s-28.74 147.639 85.31 242.909M1877.91 915.691s-68.49 194.329 111.18 306.629M1852.67 915.691s-116.92 243.879 136.42 358.369M1829.81 915.691s-176.59 246.539 159.28 401.569M1807.2 915.691s-208.97 279.139 119.89 423.999M1783.42 915.691s-226.23 194.399 42.31 423.999M1760.03 915.691s-253.31 183.959-7.24 423.999M1732.28 915.691s-266.57 161.189-47.32 423.999M1702.65 915.691s-286.03 156.829-75.06 423.999M1665.36 915.691s-298.03 127.249-97.91 423.999M1617.73 915.691s-311.53 136.129-99.57 423.999M1561.53 915.691s-295.74 122.319-93.65 423.999M1490.56 915.691s-281.95 151.899-67.04 423.999M1416.65 915.691s-254.38 183.449-29.61 423.999M1342.74 915.691s-241.59 215.979 21.63 423.999M1277.62 915.691s-213 250.479 77.85 423.999M1189.09 1205.64s30.3 76.86 166.38 134.05" fill="none" stroke="#333" transform="matrix(-1.00062 0 0 -1.00118 1990.834 1341.302)"/><g><path d="M451.069 511.039s57.25 270.462 153.522 0" fill="none" stroke="#333" transform="matrix(1.00062 0 0 1.00118 -330.908 -511.642)"/></g><g><path d="M393.193 511.039s125.395 322.732 270.445 0" fill="none" stroke="#333" transform="matrix(1.00062 0 0 1.00118 -330.908 -511.642)"/></g><g><path d="M361.985 511.039s133.497 393.351 346.58 0" fill="none" stroke="#333" transform="matrix(1.00062 0 0 1.00118 -330.908 -511.642)"/></g><g><path d="M551.962 935.043s66.749-423.391 198.963 0" fill="none" stroke="#333" transform="matrix(1.00062 0 0 1.00118 -330.908 -511.642)"/></g><g><path d="M588.006 935.043s48.676-283.475 120.559 0" fill="none" stroke="#333" transform="matrix(1.00062 0 0 1.00118 -330.908 -511.642)"/></g><g><path d="M628.98 935.043s17.971-108.901 34.658 0" fill="none" stroke="#333" transform="matrix(1.00062 0 0 1.00118 -330.908 -511.642)"/></g><g><path d="M852.332 511.039S183.56 895.458 390.225 935.043" fill="none" stroke="#333" transform="matrix(1.00062 0 0 1.00118 -330.908 -511.642)"/></g><g><path d="M923.05 511.039S191.262 908.294 455.69 935.043" fill="none" stroke="#333" transform="matrix(1.00062 0 0 1.00118 -330.908 -511.642)"/></g><g><path d="M996.099 511.039S233.622 908.294 482.646 935.043" fill="none" stroke="#333" transform="matrix(1.00062 0 0 1.00118 -330.908 -511.642)"/></g><g><path d="M1056.43 511.039S266.996 923.698 519.871 935.043" fill="none" stroke="#333" transform="matrix(1.00062 0 0 1.00118 -330.908 -511.642)"/></g><g><path d="M1094.94 511.039S296.52 946.803 539.126 935.043" fill="none" stroke="#333" transform="matrix(1.00062 0 0 1.00118 -330.908 -511.642)"/></g><g><path d="M1024.34 935.043S216.935 567.321 558.38 511.039" fill="none" stroke="#333" transform="matrix(1.00062 0 0 1.00118 -330.908 -511.642)"/></g><g><path d="M1094.94 935.043S279.832 548.067 625.129 511.039" fill="none" stroke="#333" transform="matrix(1.00062 0 0 1.00118 -330.908 -511.642)"/></g><g><path d="M894.035 511.039s-89.855 666.511 159.165 0" fill="none" stroke="#333" transform="matrix(1.00062 0 0 1.00118 -330.908 -511.642)"/></g><g><path d="M923.05 511.039s-92.876 556.761 114.11 0" fill="none" stroke="#333" transform="matrix(1.00062 0 0 1.00118 -330.908 -511.642)"/></g><g><path d="M965.726 511.039s-103.461 415.559 42.554 0" fill="none" stroke="#333" transform="matrix(1.00062 0 0 1.00118 -330.908 -511.642)"/></g><g><path d="M332.767 841.591s304.862-252.034 85.04 93.452" fill="none" stroke="#333" transform="matrix(1.00062 0 0 1.00118 -330.908 -511.642)"/></g><g><path d="M376.089 935.043s182.918-240.171-43.322-60.463" fill="none" stroke="#333" transform="matrix(1.00062 0 0 1.00118 -330.908 -511.642)"/></g><g><path d="M722.67 511.039s-165.268 813.831 393.11 0" fill="none" stroke="#333" transform="matrix(1.00062 0 0 1.00118 -330.908 -511.642)"/></g><g><path d="M774.015 511.039s-154.036 669.421 263.145 0" fill="none" stroke="#333" transform="matrix(1.00062 0 0 1.00118 -330.908 -511.642)"/></g><g><path d="M851.033 511.039s-229.449 568.331 144.408 0" fill="none" stroke="#333" transform="matrix(1.00062 0 0 1.00118 -330.908 -511.642)"/></g><g><path d="M332.767 628.411s390.367 90.477 0 143.876" fill="none" stroke="#333" transform="matrix(1.00062 0 0 1.00118 -330.908 -511.642)"/></g><g><path d="M332.767 648.031s293.838 73.937 0 96.529" fill="none" stroke="#333" transform="matrix(1.00062 0 0 1.00118 -330.908 -511.642)"/></g><g><path d="M331.192 669.596s180.331 48.265 0 44.157" fill="none" stroke="#333" transform="matrix(1.00062 0 0 1.00118 -330.908 -511.642)"/></g><g><path d="M1131.19 809.054c7.55 1.228-301.935-147.828-72.55 125.989" fill="none" stroke="#333" transform="matrix(1.00062 0 0 1.00118 -330.908 -511.642)"/></g><g><path d="M1131.19 852.346s-248.783-149.017-31.08 82.697" fill="none" stroke="#333" transform="matrix(1.00062 0 0 1.00118 -330.908 -511.642)"/></g><g><path d="M1131.19 885.385s-166.083-126.603 0 49.658" fill="none" stroke="#333" transform="matrix(1.00062 0 0 1.00118 -330.908 -511.642)"/></g><g><path d="M912.188 935.043s144.792-274.844-100.637 0" fill="none" stroke="#333" transform="matrix(1.00062 0 0 1.00118 -330.908 -511.642)"/></g><g><path d="M883.079 935.043s114.342-191.665-42.775 0" fill="none" stroke="#333" transform="matrix(1.00062 0 0 1.00118 -330.908 -511.642)"/></g><g><path d="M799.228 935.043s-435.407-361.956-284.452 0" fill="none" stroke="#333" transform="matrix(1.00062 0 0 1.00118 -330.908 -511.642)"/></g></svg>

<?xml version="1.0" encoding="UTF-8" standalone="no"?>
<!DOCTYPE svg PUBLIC "-//W3C//DTD SVG 1.1//EN" "http://www.w3.org/Graphics/SVG/1.1/DTD/svg11.dtd">
<svg width="100%" height="100%" viewBox="0 0 802 426" version="1.1" xmlns="http://www.w3.org/2000/svg" xmlns:xlink="http://www.w3.org/1999/xlink" xml:space="preserve" xmlns:serif="http://www.serif.com/" style="fill-rule:evenodd;clip-rule:evenodd;stroke-linecap:round;stroke-linejoin:round;stroke-miterlimit:1.5;">
    <g transform="matrix(9.64249,0,0,8.00809,6879.11,-7717.53)">
        <g transform="matrix(0.103772,0,0,0.125021,-747.734,899.826)">
            <rect x="331.192" y="511.039" width="800" height="424.004" style="fill:rgb(56,63,81);stroke:rgb(56,63,81);stroke-width:1px;"/>
        </g>
        <g transform="matrix(1,0,0,1,-89.0266,-50.5899)">
            <g transform="matrix(0.103772,0,0,0.125021,-747.734,899.826)">
                <path d="M1989.09,998.974C1989.09,998.974 1962.45,944.083 1961.82,915.691" style="fill:none;stroke:rgb(51,51,51);stroke-width:1px;"/>
            </g>
            <g transform="matrix(0.103772,0,0,0.125021,-747.734,899.826)">
                <path d="M1930.27,915.691C1930.27,915.691 1922.36,1004.65 1989.09,1084.15" style="fill:none;stroke:rgb(51,51,51);stroke-width:1px;"/>
            </g>
            <g transform="matrix(0.103772,0,0,0.125021,-747.734,899.826)">
                <path d="M1903.78,915.691C1903.78,915.691 1875.04,1063.33 1989.09,1158.6" style="fill:none;stroke:rgb(51,51,51);stroke-width:1px;"/>
            </g>
            <g transform="matrix(0.103772,0,0,0.125021,-747.734,899.826)">
                <path d="M1877.91,915.691C1877.91,915.691 1809.42,1110.02 1989.09,1222.32" style="fill:none;stroke:rgb(51,51,51);stroke-width:1px;"/>
            </g>
            <g transform="matrix(0.103772,0,0,0.125021,-747.734,899.826)">
                <path d="M1852.67,915.691C1852.67,915.691 1735.75,1159.57 1989.09,1274.06" style="fill:none;stroke:rgb(51,51,51);stroke-width:1px;"/>
            </g>
            <g transform="matrix(0.103772,0,0,0.125021,-747.734,899.826)">
                <path d="M1829.81,915.691C1829.81,915.691 1653.22,1162.23 1989.09,1317.26" style="fill:none;stroke:rgb(51,51,51);stroke-width:1px;"/>
            </g>
            <g transform="matrix(0.103772,0,0,0.125021,-747.734,899.826)">
                <path d="M1807.2,915.691C1807.2,915.691 1598.23,1194.83 1927.09,1339.69" style="fill:none;stroke:rgb(51,51,51);stroke-width:1px;"/>
            </g>
            <g transform="matrix(0.103772,0,0,0.125021,-747.734,899.826)">
                <path d="M1783.42,915.691C1783.42,915.691 1557.19,1110.09 1825.73,1339.69" style="fill:none;stroke:rgb(51,51,51);stroke-width:1px;"/>
            </g>
            <g transform="matrix(0.103772,0,0,0.125021,-747.734,899.826)">
                <path d="M1760.03,915.691C1760.03,915.691 1506.72,1099.65 1752.79,1339.69" style="fill:none;stroke:rgb(51,51,51);stroke-width:1px;"/>
            </g>
            <g transform="matrix(0.103772,0,0,0.125021,-747.734,899.826)">
                <path d="M1732.28,915.691C1732.28,915.691 1465.71,1076.88 1684.96,1339.69" style="fill:none;stroke:rgb(51,51,51);stroke-width:1px;"/>
            </g>
            <g transform="matrix(0.103772,0,0,0.125021,-747.734,899.826)">
                <path d="M1702.65,915.691C1702.65,915.691 1416.62,1072.52 1627.59,1339.69" style="fill:none;stroke:rgb(51,51,51);stroke-width:1px;"/>
            </g>
            <g transform="matrix(0.103772,0,0,0.125021,-747.734,899.826)">
                <path d="M1665.36,915.691C1665.36,915.691 1367.33,1042.94 1567.45,1339.69" style="fill:none;stroke:rgb(51,51,51);stroke-width:1px;"/>
            </g>
            <g transform="matrix(0.103772,0,0,0.125021,-747.734,899.826)">
                <path d="M1617.73,915.691C1617.73,915.691 1306.2,1051.82 1518.16,1339.69" style="fill:none;stroke:rgb(51,51,51);stroke-width:1px;"/>
            </g>
            <g transform="matrix(0.103772,0,0,0.125021,-747.734,899.826)">
                <path d="M1561.53,915.691C1561.53,915.691 1265.79,1038.01 1467.88,1339.69" style="fill:none;stroke:rgb(51,51,51);stroke-width:1px;"/>
            </g>
            <g transform="matrix(0.103772,0,0,0.125021,-747.734,899.826)">
                <path d="M1490.56,915.691C1490.56,915.691 1208.61,1067.59 1423.52,1339.69" style="fill:none;stroke:rgb(51,51,51);stroke-width:1px;"/>
            </g>
            <g transform="matrix(0.103772,0,0,0.125021,-747.734,899.826)">
                <path d="M1416.65,915.691C1416.65,915.691 1162.27,1099.14 1387.04,1339.69" style="fill:none;stroke:rgb(51,51,51);stroke-width:1px;"/>
            </g>
            <g transform="matrix(0.103772,0,0,0.125021,-747.734,899.826)">
                <path d="M1342.74,915.691C1342.74,915.691 1101.15,1131.67 1364.37,1339.69" style="fill:none;stroke:rgb(51,51,51);stroke-width:1px;"/>
            </g>
            <g transform="matrix(0.103772,0,0,0.125021,-747.734,899.826)">
                <path d="M1277.62,915.691C1277.62,915.691 1064.62,1166.17 1355.47,1339.69" style="fill:none;stroke:rgb(51,51,51);stroke-width:1px;"/>
            </g>
            <g transform="matrix(0.103772,0,0,0.125021,-747.734,899.826)">
                <path d="M1189.09,1205.64C1189.09,1205.64 1219.39,1282.5 1355.47,1339.69" style="fill:none;stroke:rgb(51,51,51);stroke-width:1px;"/>
            </g>
            <g transform="matrix(-0.103772,1.53106e-17,-1.27085e-17,-0.125021,-417.925,1181.8)">
                <path d="M1989.09,998.974C1989.09,998.974 1962.45,944.083 1961.82,915.691" style="fill:none;stroke:rgb(51,51,51);stroke-width:1px;"/>
            </g>
            <g transform="matrix(-0.103772,1.53106e-17,-1.27085e-17,-0.125021,-417.925,1181.8)">
                <path d="M1930.27,915.691C1930.27,915.691 1922.36,1004.65 1989.09,1084.15" style="fill:none;stroke:rgb(51,51,51);stroke-width:1px;"/>
            </g>
            <g transform="matrix(-0.103772,1.53106e-17,-1.27085e-17,-0.125021,-417.925,1181.8)">
                <path d="M1903.78,915.691C1903.78,915.691 1875.04,1063.33 1989.09,1158.6" style="fill:none;stroke:rgb(51,51,51);stroke-width:1px;"/>
            </g>
            <g transform="matrix(-0.103772,1.53106e-17,-1.27085e-17,-0.125021,-417.925,1181.8)">
                <path d="M1877.91,915.691C1877.91,915.691 1809.42,1110.02 1989.09,1222.32" style="fill:none;stroke:rgb(51,51,51);stroke-width:1px;"/>
            </g>
            <g transform="matrix(-0.103772,1.53106e-17,-1.27085e-17,-0.125021,-417.925,1181.8)">
                <path d="M1852.67,915.691C1852.67,915.691 1735.75,1159.57 1989.09,1274.06" style="fill:none;stroke:rgb(51,51,51);stroke-width:1px;"/>
            </g>
            <g transform="matrix(-0.103772,1.53106e-17,-1.27085e-17,-0.125021,-417.925,1181.8)">
                <path d="M1829.81,915.691C1829.81,915.691 1653.22,1162.23 1989.09,1317.26" style="fill:none;stroke:rgb(51,51,51);stroke-width:1px;"/>
            </g>
            <g transform="matrix(-0.103772,1.53106e-17,-1.27085e-17,-0.125021,-417.925,1181.8)">
                <path d="M1807.2,915.691C1807.2,915.691 1598.23,1194.83 1927.09,1339.69" style="fill:none;stroke:rgb(51,51,51);stroke-width:1px;"/>
            </g>
            <g transform="matrix(-0.103772,1.53106e-17,-1.27085e-17,-0.125021,-417.925,1181.8)">
                <path d="M1783.42,915.691C1783.42,915.691 1557.19,1110.09 1825.73,1339.69" style="fill:none;stroke:rgb(51,51,51);stroke-width:1px;"/>
            </g>
            <g transform="matrix(-0.103772,1.53106e-17,-1.27085e-17,-0.125021,-417.925,1181.8)">
                <path d="M1760.03,915.691C1760.03,915.691 1506.72,1099.65 1752.79,1339.69" style="fill:none;stroke:rgb(51,51,51);stroke-width:1px;"/>
            </g>
            <g transform="matrix(-0.103772,1.53106e-17,-1.27085e-17,-0.125021,-417.925,1181.8)">
                <path d="M1732.28,915.691C1732.28,915.691 1465.71,1076.88 1684.96,1339.69" style="fill:none;stroke:rgb(51,51,51);stroke-width:1px;"/>
            </g>
            <g transform="matrix(-0.103772,1.53106e-17,-1.27085e-17,-0.125021,-417.925,1181.8)">
                <path d="M1702.65,915.691C1702.65,915.691 1416.62,1072.52 1627.59,1339.69" style="fill:none;stroke:rgb(51,51,51);stroke-width:1px;"/>
            </g>
            <g transform="matrix(-0.103772,1.53106e-17,-1.27085e-17,-0.125021,-417.925,1181.8)">
                <path d="M1665.36,915.691C1665.36,915.691 1367.33,1042.94 1567.45,1339.69" style="fill:none;stroke:rgb(51,51,51);stroke-width:1px;"/>
            </g>
            <g transform="matrix(-0.103772,1.53106e-17,-1.27085e-17,-0.125021,-417.925,1181.8)">
                <path d="M1617.73,915.691C1617.73,915.691 1306.2,1051.82 1518.16,1339.69" style="fill:none;stroke:rgb(51,51,51);stroke-width:1px;"/>
            </g>
            <g transform="matrix(-0.103772,1.53106e-17,-1.27085e-17,-0.125021,-417.925,1181.8)">
                <path d="M1561.53,915.691C1561.53,915.691 1265.79,1038.01 1467.88,1339.69" style="fill:none;stroke:rgb(51,51,51);stroke-width:1px;"/>
            </g>
            <g transform="matrix(-0.103772,1.53106e-17,-1.27085e-17,-0.125021,-417.925,1181.8)">
                <path d="M1490.56,915.691C1490.56,915.691 1208.61,1067.59 1423.52,1339.69" style="fill:none;stroke:rgb(51,51,51);stroke-width:1px;"/>
            </g>
            <g transform="matrix(-0.103772,1.53106e-17,-1.27085e-17,-0.125021,-417.925,1181.8)">
                <path d="M1416.65,915.691C1416.65,915.691 1162.27,1099.14 1387.04,1339.69" style="fill:none;stroke:rgb(51,51,51);stroke-width:1px;"/>
            </g>
            <g transform="matrix(-0.103772,1.53106e-17,-1.27085e-17,-0.125021,-417.925,1181.8)">
                <path d="M1342.74,915.691C1342.74,915.691 1101.15,1131.67 1364.37,1339.69" style="fill:none;stroke:rgb(51,51,51);stroke-width:1px;"/>
            </g>
            <g transform="matrix(-0.103772,1.53106e-17,-1.27085e-17,-0.125021,-417.925,1181.8)">
                <path d="M1277.62,915.691C1277.62,915.691 1064.62,1166.17 1355.47,1339.69" style="fill:none;stroke:rgb(51,51,51);stroke-width:1px;"/>
            </g>
            <g transform="matrix(-0.103772,1.53106e-17,-1.27085e-17,-0.125021,-417.925,1181.8)">
                <path d="M1189.09,1205.64C1189.09,1205.64 1219.39,1282.5 1355.47,1339.69" style="fill:none;stroke:rgb(51,51,51);stroke-width:1px;"/>
            </g>
        </g>
        <g transform="matrix(0.103772,0,0,0.125021,-747.734,899.826)">
            <path d="M451.069,511.039C451.069,511.039 508.319,781.501 604.591,511.039" style="fill:none;stroke:rgb(51,51,51);stroke-width:1px;"/>
        </g>
        <g transform="matrix(0.103772,0,0,0.125021,-747.734,899.826)">
            <path d="M393.193,511.039C393.193,511.039 518.588,833.771 663.638,511.039" style="fill:none;stroke:rgb(51,51,51);stroke-width:1px;"/>
        </g>
        <g transform="matrix(0.103772,0,0,0.125021,-747.734,899.826)">
            <path d="M361.985,511.039C361.985,511.039 495.482,904.39 708.565,511.039" style="fill:none;stroke:rgb(51,51,51);stroke-width:1px;"/>
        </g>
        <g transform="matrix(0.103772,0,0,0.125021,-747.734,899.826)">
            <path d="M551.962,935.043C551.962,935.043 618.711,511.652 750.925,935.043" style="fill:none;stroke:rgb(51,51,51);stroke-width:1px;"/>
        </g>
        <g transform="matrix(0.103772,0,0,0.125021,-747.734,899.826)">
            <path d="M588.006,935.043C588.006,935.043 636.682,651.568 708.565,935.043" style="fill:none;stroke:rgb(51,51,51);stroke-width:1px;"/>
        </g>
        <g transform="matrix(0.103772,0,0,0.125021,-747.734,899.826)">
            <path d="M628.98,935.043C628.98,935.043 646.951,826.142 663.638,935.043" style="fill:none;stroke:rgb(51,51,51);stroke-width:1px;"/>
        </g>
        <g transform="matrix(0.103772,0,0,0.125021,-747.734,899.826)">
            <path d="M852.332,511.039C852.332,511.039 183.56,895.458 390.225,935.043" style="fill:none;stroke:rgb(51,51,51);stroke-width:1px;"/>
        </g>
        <g transform="matrix(0.103772,0,0,0.125021,-747.734,899.826)">
            <path d="M923.05,511.039C923.05,511.039 191.262,908.294 455.69,935.043" style="fill:none;stroke:rgb(51,51,51);stroke-width:1px;"/>
        </g>
        <g transform="matrix(0.103772,0,0,0.125021,-747.734,899.826)">
            <path d="M996.099,511.039C996.099,511.039 233.622,908.294 482.646,935.043" style="fill:none;stroke:rgb(51,51,51);stroke-width:1px;"/>
        </g>
        <g transform="matrix(0.103772,0,0,0.125021,-747.734,899.826)">
            <path d="M1056.43,511.039C1056.43,511.039 266.996,923.698 519.871,935.043" style="fill:none;stroke:rgb(51,51,51);stroke-width:1px;"/>
        </g>
        <g transform="matrix(0.103772,0,0,0.125021,-747.734,899.826)">
            <path d="M1094.94,511.039C1094.94,511.039 296.52,946.803 539.126,935.043" style="fill:none;stroke:rgb(51,51,51);stroke-width:1px;"/>
        </g>
        <g transform="matrix(0.103772,0,0,0.125021,-747.734,899.826)">
            <path d="M1024.34,935.043C1024.34,935.043 216.935,567.321 558.38,511.039" style="fill:none;stroke:rgb(51,51,51);stroke-width:1px;"/>
        </g>
        <g transform="matrix(0.103772,0,0,0.125021,-747.734,899.826)">
            <path d="M1094.94,935.043C1094.94,935.043 279.832,548.067 625.129,511.039" style="fill:none;stroke:rgb(51,51,51);stroke-width:1px;"/>
        </g>
        <g transform="matrix(0.103772,0,0,0.125021,-747.734,899.826)">
            <path d="M894.035,511.039C894.035,511.039 804.18,1177.55 1053.2,511.039" style="fill:none;stroke:rgb(51,51,51);stroke-width:1px;"/>
        </g>
        <g transform="matrix(0.103772,0,0,0.125021,-747.734,899.826)">
            <path d="M923.05,511.039C923.05,511.039 830.174,1067.8 1037.16,511.039" style="fill:none;stroke:rgb(51,51,51);stroke-width:1px;"/>
        </g>
        <g transform="matrix(0.103772,0,0,0.125021,-747.734,899.826)">
            <path d="M965.726,511.039C965.726,511.039 862.265,926.598 1008.28,511.039" style="fill:none;stroke:rgb(51,51,51);stroke-width:1px;"/>
        </g>
        <g transform="matrix(0.103772,0,0,0.125021,-747.734,899.826)">
            <path d="M332.767,841.591C332.767,841.591 637.629,589.557 417.807,935.043" style="fill:none;stroke:rgb(51,51,51);stroke-width:1px;"/>
        </g>
        <g transform="matrix(0.103772,0,0,0.125021,-747.734,899.826)">
            <path d="M376.089,935.043C376.089,935.043 559.007,694.872 332.767,874.58" style="fill:none;stroke:rgb(51,51,51);stroke-width:1px;"/>
        </g>
        <g transform="matrix(0.103772,0,0,0.125021,-747.734,899.826)">
            <path d="M722.67,511.039C722.67,511.039 557.402,1324.87 1115.78,511.039" style="fill:none;stroke:rgb(51,51,51);stroke-width:1px;"/>
        </g>
        <g transform="matrix(0.103772,0,0,0.125021,-747.734,899.826)">
            <path d="M774.015,511.039C774.015,511.039 619.979,1180.46 1037.16,511.039" style="fill:none;stroke:rgb(51,51,51);stroke-width:1px;"/>
        </g>
        <g transform="matrix(0.103772,0,0,0.125021,-747.734,899.826)">
            <path d="M851.033,511.039C851.033,511.039 621.584,1079.37 995.441,511.039" style="fill:none;stroke:rgb(51,51,51);stroke-width:1px;"/>
        </g>
        <g transform="matrix(0.103772,0,0,0.125021,-747.734,899.826)">
            <path d="M332.767,628.411C332.767,628.411 723.134,718.888 332.767,772.287" style="fill:none;stroke:rgb(51,51,51);stroke-width:1px;"/>
        </g>
        <g transform="matrix(0.103772,0,0,0.125021,-747.734,899.826)">
            <path d="M332.767,648.031C332.767,648.031 626.605,721.968 332.767,744.56" style="fill:none;stroke:rgb(51,51,51);stroke-width:1px;"/>
        </g>
        <g transform="matrix(0.103772,0,0,0.125021,-747.734,899.826)">
            <path d="M331.192,669.596C331.192,669.596 511.523,717.861 331.192,713.753" style="fill:none;stroke:rgb(51,51,51);stroke-width:1px;"/>
        </g>
        <g transform="matrix(0.103772,0,0,0.125021,-747.734,899.826)">
            <path d="M1131.19,809.054C1138.74,810.282 829.255,661.226 1058.64,935.043" style="fill:none;stroke:rgb(51,51,51);stroke-width:1px;"/>
        </g>
        <g transform="matrix(0.103772,0,0,0.125021,-747.734,899.826)">
            <path d="M1131.19,852.346C1131.19,852.346 882.407,703.329 1100.11,935.043" style="fill:none;stroke:rgb(51,51,51);stroke-width:1px;"/>
        </g>
        <g transform="matrix(0.103772,0,0,0.125021,-747.734,899.826)">
            <path d="M1131.19,885.385C1131.19,885.385 965.107,758.782 1131.19,935.043" style="fill:none;stroke:rgb(51,51,51);stroke-width:1px;"/>
        </g>
        <g transform="matrix(0.103772,0,0,0.125021,-747.734,899.826)">
            <path d="M912.188,935.043C912.188,935.043 1056.98,660.199 811.551,935.043" style="fill:none;stroke:rgb(51,51,51);stroke-width:1px;"/>
        </g>
        <g transform="matrix(0.103772,0,0,0.125021,-747.734,899.826)">
            <path d="M883.079,935.043C883.079,935.043 997.421,743.378 840.304,935.043" style="fill:none;stroke:rgb(51,51,51);stroke-width:1px;"/>
        </g>
        <g transform="matrix(0.103772,0,0,0.125021,-747.734,899.826)">
            <path d="M799.228,935.043C799.228,935.043 363.821,573.087 514.776,935.043" style="fill:none;stroke:rgb(51,51,51);stroke-width:1px;"/>
        </g>
    </g>
</svg>
